X: 38
T: Walter Bulwer's 1
R: polka
M: 4/4
L: 1/8
K: Gmaj
|:Bc | "G" dcBd g3f | "C" e2A2 A2AB | "D" cBAc f3e  | "G" d2B2B2 Bc |
       "G" dcBd g3f | "C" e2A2 A2AG | "D" FGAB cdef | "G" g2g2g2 :| 
K: DMaj
|: fg | "D" a2fg a2fg | "D" agfg "A" e4 | "A" e2a2 gfe2 | "D" dcde fefg | 
        "D" a2fg a2fg | "D" agfg "A" e4 | "A" e2a2 gfec | "D" d2f2 d2 :| 

